X:1
T:Llanllyfni, SMD
T:Llanllyfni, SMD
T:John Jones (1797-1857)
T:Public Domain Courtesy of the Cyber Hymnal™
C:John Jones (1797-1857)
Z:Public Domain
Z:Courtesy of the Cyber Hymnal™
%%score ( 1 2 ) ( 3 4 )
L:1/8
Q:1/4=130
M:3/2
K:F
V:1 treble 
V:2 treble 
V:3 bass 
V:4 bass 
V:1
 D4 | [DA]2 [DA]2 [DG]4 [DF]4 | [^CE]8 [DF]4 | [B,E]2 [B,D]2 [A,D]4 [A,^C]4 | [A,D]8 [^CE]4 | %5
 [DF]2 [^CE]2 D4 [CE]4 | [DF]2 [DG]2 [^CA]4 [DF]4 | [DA]2 [DA]2 D4 [B,E]4 | [A,F]8 [FA]4 | %9
 [Gc]2 [FA]2 [EG]4 [DF]4 | [^CE]8 [CA]4 | [Dd]2 [D=B]2 A4 z2 z2 x4 | [CA]8 F3 E | %13
 D2 [CE]2 [CA]4 [CA]4 | [^CG]2 [DF]2 [CE]4 F2 G2 | [DA]2 [DB]2 A2 G2 [DF]2 [^CE]2 | D8 |] %17
V:2
 D4 | x12 | x12 | x12 | x12 | x4 D4 x4 | x12 | x4 D2 C2 x4 | x12 | x12 | x12 | x4 C2 E4 ^G4 D2 | %12
 x8 F3 E | D2 x10 | x8 D4 | x4 D4 x4 | D8 |] %17
V:3
 [D,F,]4 | [D,F,]2 [C,^F,]2 [B,,G,]4 [A,,A,]2 [G,,B,]2 | E,8 [F,,A,]4 | %3
 [G,,G,]2 [G,,G,]2 [A,,F,]4 (E,2 G,2) | [D,F,]8 [A,,A,]4 | [D,A,]2 [A,,G,]2 [B,,F,]4 [A,,A,]4 | %6
 [D,A,]2 [B,,D,]2 [A,,E,]4 [D,F,]4 | [D,F,]2 [C,F,]2 F,4 G,4 | [F,,A,]8 [F,A,]4 | %9
 [E,G,]2 [F,A,]2 [C,C]4 [D,A,]4 | [A,,A,]8 A,4 | [F,A,]2 [D,F,]2 E,2 z2 z2 =B,2 x4 | %12
 [A,,A,]8 F,3 E, | D,2 [C,G,]2 [F,,F,]4 F,4 | [E,G,]2 [D,A,]2 [A,,A,]4 [D,A,]2 [B,,G,]2 | %15
 [A,,F,]2 [G,,G,]2 [F,,A,]2 [G,,B,]2 A,2 G,2 | [D,F,]8 |] %17
V:4
 x4 | x12 | (A,,4 G,,4) x4 | x8 A,,4 | x12 | x12 | x12 | x4 B,,2 A,,2 (G,,2 C,2) | x12 | x12 | %10
 x8 (A,2 G,2) | x4 E,4 A,4 E,4 | x8 F,3 E, | D,2 x4 F,4 x2 | x12 | x8 A,,4 | x8 |] %17

